X: 12646
T: Farmers' Jamboree
R: jig
M: 6/8
K: Gmajor
|:d2B g2f|e2c a2g|f2A Ace|d3dBc|
d2B g2f|e2c a2g|fed cBA|G3G:|

